src/lib/packages/icons/src/assets/line/heart-circle.svg

<svg width="24" height="24" viewBox="0 0 24 24" fill="none" xmlns="http://www.w3.org/2000/svg">
<path d="M12 22.75C6.072 22.75 1.25 17.927 1.25 12C1.25 6.073 6.072 1.25 12 1.25C17.928 1.25 22.75 6.073 22.75 12C22.75 17.927 17.928 22.75 12 22.75ZM12 2.75C6.899 2.75 2.75 6.899 2.75 12C2.75 17.101 6.899 21.25 12 21.25C17.101 21.25 21.25 17.101 21.25 12C21.25 6.899 17.101 2.75 12 2.75ZM12 17.75C11.894 17.75 11.788 17.728 11.689 17.683C11.509 17.601 7.27501 15.637 6.58801 12.096C6.31601 10.693 6.59599 9.31402 7.33899 8.40802C7.95599 7.65602 8.83804 7.255 9.88904 7.25C9.89504 7.25 9.90003 7.25 9.90503 7.25C10.886 7.25 11.559 7.69499 12 8.17499C12.44 7.69499 13.113 7.25 14.095 7.25C14.1 7.25 14.105 7.25 14.111 7.25C15.163 7.255 16.045 7.65501 16.661 8.40601C17.415 9.32401 17.688 10.669 17.412 12.095C16.725 15.637 12.491 17.601 12.311 17.682C12.212 17.728 12.106 17.75 12 17.75ZM9.90405 8.75C9.90105 8.75 9.89897 8.75 9.89697 8.75C9.29797 8.753 8.82902 8.95801 8.49902 9.35901C8.03702 9.92301 7.87303 10.839 8.06104 11.809C8.50804 14.116 11.094 15.678 11.999 16.16C12.902 15.676 15.493 14.107 15.938 11.81C16.126 10.838 15.962 9.92197 15.5 9.35797C15.171 8.95797 14.7011 8.753 14.1021 8.75C14.1001 8.75 14.097 8.75 14.095 8.75C13.099 8.75 12.725 9.78101 12.709 9.82501C12.603 10.126 12.318 10.329 12 10.329C11.998 10.329 11.996 10.329 11.994 10.329C11.673 10.326 11.389 10.123 11.287 9.81897C11.274 9.78097 10.9001 8.75 9.90405 8.75ZM16.675 11.952H16.6851H16.675Z" fill="currentColor"/>
</svg>

<svg xmlns="http://www.w3.org/2000/svg" width="24" height="24" fill="none"><path fill="currentColor" d="M12 22.75C6.072 22.75 1.25 17.927 1.25 12S6.072 1.25 12 1.25 22.75 6.073 22.75 12 17.928 22.75 12 22.75Zm0-20c-5.101 0-9.25 4.149-9.25 9.25s4.149 9.25 9.25 9.25 9.25-4.149 9.25-9.25S17.101 2.75 12 2.75Zm0 15a.75.75 0 0 1-.311-.067c-.18-.082-4.414-2.046-5.101-5.587-.272-1.403.008-2.782.751-3.688.617-.752 1.499-1.153 2.55-1.158h.016A2.76 2.76 0 0 1 12 8.175a2.756 2.756 0 0 1 2.095-.925h.016c1.052.005 1.934.405 2.55 1.156.754.918 1.027 2.263.751 3.689-.687 3.542-4.921 5.506-5.101 5.587a.736.736 0 0 1-.311.068Zm-2.096-9h-.007c-.599.003-1.068.208-1.398.609-.462.564-.626 1.48-.438 2.45.447 2.307 3.033 3.869 3.938 4.351.903-.484 3.494-2.053 3.939-4.35.188-.972.024-1.888-.438-2.452-.329-.4-.799-.605-1.398-.608h-.007c-.996 0-1.37 1.031-1.386 1.075a.754.754 0 0 1-.709.504h-.006a.75.75 0 0 1-.707-.51c-.013-.038-.387-1.069-1.383-1.069Zm6.771 3.202h.01-.01Z"/></svg>
